X: 9042
T: Da Eye Wifie
R: reel
M: 4/4
K: Dmajor
D2FD EAGE|FDDE FDED|B,E~E2 EFGA|B2AF Egfe|
f2dA zAFB|ABdB A2ED|DE~E2 A2ED|DB,B,D D2 (3G,A,B,||
D2FD EAGE|FDDE FDED|B,E~E2 E2GA|B2AF E zge|
ffdA zAFB|AA~F2 dBA2|DE~E2 A2ED|DB,B,D Defg||
fd~d2 cdBd|Ad (3Acd fdcd|(3Bcd gd (3Acd fd|AAed cage|
fd~d2 cdBd|Adcd BdA2|DE (3EEE A2ED|DB,B,D Defg||
fd~d2 cddd|Ad (3Acd fdcd|(3Bcd gd (3Acd fd|AAed cage|
fd~d2 cdBd|Adcd BdAD|DE~E2 A2E2|DB,B,D D4:|

